X: 1
T: Farsgubben
R:
C: P\"ar N\"asbom
S: played by P\"ar & Torbj\"orn N\"asbom https://www.facebook.com/100063056928699/videos/307055817686543
Z: G Campbell Kaynor (Facebook message 2020-8-2)
M: 3/4
L: 1/4
K: Bm
Q:1/4=100
|:\
fb>g | f c/d//c// B/>F/ | B/c/ d/e/ f/>d/ | d/c//B// c2 ||\
fb>g | f c/d//c// B/>F/ | B/c/ d/e/ f/>e/ | c/d/ B2 :|
|:\
d d/c//B// c/>F/ | d d/c//B// c/>d/ | e e/>f/ g/a/ | f.f2 ||\
g g/>f/ e/g/ | b f/d/ B/>c/ | d f/>e/ c/>d/ | BB2 :|
|:\
f a>b | a/g//f// e/<c/ A | d f>g | f/e//d// c/<^A/ F- ||\
F/>^A/ c/e/ d/>c/ | B/f/ e/g/ f/^g//^a// | b f/>e/ c/>e/ | d/<c/ B2 :|
